assets/Seedling/Flat/seedling_flat.svg

<svg width="32" height="32" viewBox="0 0 32 32" fill="none" xmlns="http://www.w3.org/2000/svg">
<path d="M22.39 6.45001C20.1 6.45001 18.07 7.53001 16.76 9.20001V9.15001V8.73001H16.75C16.53 4.98001 13.42 2 9.61 2H2C2 5.95 5.20001 9.15001 9.15001 9.15001H14.34V21.61H16.76V13.61H22.85C26.8 13.61 30 10.41 30 6.46001H22.39V6.45001Z" fill="#86D72F"/>
<path d="M15.5501 21C10.5854 21 6.56024 25.0252 6.56024 29.9899H24.5499C24.5499 25.0252 20.5248 21 15.5501 21Z" fill="#6D4534"/>
</svg>

<svg xmlns="http://www.w3.org/2000/svg" width="32" height="32" fill="none"><path fill="#86D72F" d="M22.39 6.45c-2.29 0-4.32 1.08-5.63 2.75v-.47h-.01A7.155 7.155 0 0 0 9.61 2H2c0 3.95 3.2 7.15 7.15 7.15h5.19v12.46h2.42v-8h6.09c3.95 0 7.15-3.2 7.15-7.15h-7.61v-.01Z"/><path fill="#6D4534" d="M15.55 21a8.99 8.99 0 0 0-8.99 8.99h17.99c0-4.965-4.025-8.99-9-8.99Z"/></svg>
